X:34
T:Oyster Girl. JBu.34
O:England,South Yorkshire
S:Joshua Burnett’s MS,c1835,S.Yorkshire
M:6/8
L:1/8
Q:3/8=120
R:jig
N:No key sig in MS
Z:vmp.R.Greig.2011
K:G
d|ded B2G|A2FD2D|G2GB2G|d2B A2A|
ded B2G|g2ec2e|edB dcA|G3-G2:|
A|B2BB2A|B2cd3|A2AA2G|F2GA3|
FEF GFG|AGA d2B|BAF AGE|D3-!D.C.!D2|]

